folder-wrench.svg

<svg fill="currentColor" viewBox="0 0 24 24"><path d="M13.03 20H4a2 2 0 0 1-2-2V6c0-1.11.89-2 2-2h6l2 2h8a2 2 0 0 1 2 2v9.5l-1.04-1.06c.01-.14.04-.29.04-.44 0-2.76-2.24-5-5-5s-5 2.24-5 5c0 1.64.8 3.09 2.03 4m9.84 1.19-4.11-4.11c.41-1.04.18-2.26-.68-3.11-.9-.91-2.25-1.09-3.34-.59l1.94 1.94-1.35 1.36-1.99-1.95c-.54 1.09-.29 2.44.59 3.35a2.91 2.91 0 0 0 3.12.68l4.11 4.1c.18.19.45.19.63 0l1.04-1.03c.22-.18.22-.5.04-.64"/></svg>

<svg  viewBox="0 0 24 24" fill="currentColor"><path  d="M13.03 20H4C2.9 20 2 19.11 2 18V6C2 4.89 2.89 4 4 4H10L12 6H20C21.1 6 22 6.89 22 8V17.5L20.96 16.44C20.97 16.3 21 16.15 21 16C21 13.24 18.76 11 16 11S11 13.24 11 16C11 17.64 11.8 19.09 13.03 20M22.87 21.19L18.76 17.08C19.17 16.04 18.94 14.82 18.08 13.97C17.18 13.06 15.83 12.88 14.74 13.38L16.68 15.32L15.33 16.68L13.34 14.73C12.8 15.82 13.05 17.17 13.93 18.08C14.79 18.94 16 19.16 17.05 18.76L21.16 22.86C21.34 23.05 21.61 23.05 21.79 22.86L22.83 21.83C23.05 21.65 23.05 21.33 22.87 21.19Z"/></svg>
